neru-light-classic/22x22/actions/object-rotate-right-symbolic.svg

<?xml version="1.0" encoding="UTF-8" standalone="no"?>
<svg
   xmlns:dc="http://purl.org/dc/elements/1.1/"
   xmlns:cc="http://creativecommons.org/ns#"
   xmlns:rdf="http://www.w3.org/1999/02/22-rdf-syntax-ns#"
   xmlns:svg="http://www.w3.org/2000/svg"
   xmlns="http://www.w3.org/2000/svg"
   xmlns:sodipodi="http://sodipodi.sourceforge.net/DTD/sodipodi-0.dtd"
   xmlns:inkscape="http://www.inkscape.org/namespaces/inkscape"
   width="22"
   height="22"
   viewBox="0 0 22 22"
   version="1.1"
   id="svg7"
   sodipodi:docname="object-rotate-right-symbolic.svg"
   inkscape:version="0.92.1 r">
  <metadata
     id="metadata11">
    <rdf:RDF>
      <cc:Work
         rdf:about="">
        <dc:format>image/svg+xml</dc:format>
        <dc:type
           rdf:resource="http://purl.org/dc/dcmitype/StillImage" />
        <dc:title></dc:title>
      </cc:Work>
    </rdf:RDF>
  </metadata>
  <sodipodi:namedview
     pagecolor="#ffffff"
     bordercolor="#666666"
     borderopacity="1"
     objecttolerance="10"
     gridtolerance="10"
     guidetolerance="10"
     inkscape:pageopacity="0"
     inkscape:pageshadow="2"
     inkscape:window-width="769"
     inkscape:window-height="480"
     id="namedview9"
     showgrid="false"
     inkscape:zoom="10.727273"
     inkscape:cx="11"
     inkscape:cy="11"
     inkscape:window-x="0"
     inkscape:window-y="0"
     inkscape:window-maximized="0"
     inkscape:current-layer="svg7" />
  <defs
     id="defs3">
    <style
       type="text/css"
       id="current-color-scheme">
   .ColorScheme-Text { color:#1e333d; } .ColorScheme-Highlight { color:#3fb7ff; }
  </style>
  </defs>
  <path
     style="fill:currentColor;opacity:1"
     class="ColorScheme-Text"
     transform="translate(3 3)"
     d="M 7.9804688 0.001953125 L 7.9804688 2.0019531 C 4.6667688 2.0019531 1.9804688 4.6882531 1.9804688 8.0019531 C 1.9804688 11.315653 4.6667688 14.001953 7.9804688 14.001953 C 11.260569 14.001953 13.920809 11.368762 13.974609 8.1015625 A 1 1 0 0 0 13.980469 8.0019531 A 1 1 0 0 0 12.980469 7.0019531 A 1 1 0 0 0 11.980469 8.0019531 C 11.980469 10.211053 10.189569 12.001953 7.9804688 12.001953 C 5.7713688 12.001953 3.9804688 10.211053 3.9804688 8.0019531 C 3.9804688 5.7928531 5.7713688 4.0019531 7.9804688 4.0019531 L 7.9804688 6.0019531 L 11.980469 3.0019531 L 7.9804688 0.001953125 z"
     id="path5" />
</svg>

<svg xmlns="http://www.w3.org/2000/svg" width="22" height="22" version="1.1" id="svg7"><defs id="defs3"><style type="text/css" id="current-color-scheme"></style></defs><path transform="translate(3 3)" d="M7.98.002v2a6 6 0 0 0 0 12c3.28 0 5.94-2.633 5.995-5.9a1 1 0 0 0 .005-.1 1 1 0 0 0-1-1 1 1 0 0 0-1 1 4 4 0 1 1-4-4v2l4-3-4-3z" id="path5" fill="currentColor" opacity="1" color="#1e333d"/></svg>
